X:1
T: Miss Stewart
C:
R:Strathspey
Q: 232
K:Bb
M:4/4
L:1/16
|:F2|B3c B3c df3 d3B|c3d c3B Ac3 A3F|B3c B3F G3A B3G|F3G B3c dB3 B2F2|
B3c B3c df3 d3B|c3d c3B Ac3 A3F|B3c B3F G3A B3G|F3G B3c dB3 B2f2|
fB3 c3B bB3 B2de|fB3 g3B Ac3 c2de|f3B g3B a3B b3G|F3A c3e dB3 B2f2|
fB3 c3B bB3 B2de|fB3 g3B Ac3 c2de|f3d g3e ac3 b3g|fd3 c3a bB3 B2:|
